src/cmd/sc_insertcellsright.svg

<svg viewBox="0 0 16 16" xmlns="http://www.w3.org/2000/svg"><path d="m2 2v12h1 6v-1h-2v-3h2v-1h-2v-2h2v-1h-2v-3h2v-1h-6zm1 1h3v3h-3zm0 4h3v2h-3zm0 3h3v3h-3zm7 0v4l4-2z" fill="#232629"/><path d="m9 2v1 1.28125 1.71875 1 2h1v-.28125l1.71875-1.71875 1-1 .28125-.28125v2.5625l-.71875.71875h1.4375.28125v-.28125-1.4375-2.5625-1.4375-1.28125h-1v2.28125l-1.71875 1.71875-1 1-.28125.28125v-.28125-1-1.28125l1.71875-1.71875 1-1h-1.4375l-1 1-.28125.28125v-.28125-1z" fill="#762572"/></svg>

<?xml version="1.0" encoding="UTF-8" standalone="no"?>
<svg
   xmlns:dc="http://purl.org/dc/elements/1.1/"
   xmlns:cc="http://creativecommons.org/ns#"
   xmlns:rdf="http://www.w3.org/1999/02/22-rdf-syntax-ns#"
   xmlns:svg="http://www.w3.org/2000/svg"
   xmlns="http://www.w3.org/2000/svg"
   xmlns:sodipodi="http://sodipodi.sourceforge.net/DTD/sodipodi-0.dtd"
   xmlns:inkscape="http://www.inkscape.org/namespaces/inkscape"
   viewBox="0 0 16 16"
   version="1.1"
   id="svg6"
   sodipodi:docname="sc_insertcellsright.svg"
   inkscape:version="0.92.4 (5da689c313, 2019-01-14)">
  <metadata
     id="metadata12">
    <rdf:RDF>
      <cc:Work
         rdf:about="">
        <dc:format>image/svg+xml</dc:format>
        <dc:type
           rdf:resource="http://purl.org/dc/dcmitype/StillImage" />
      </cc:Work>
    </rdf:RDF>
  </metadata>
  <defs
     id="defs10" />
  <sodipodi:namedview
     pagecolor="#ffffff"
     bordercolor="#666666"
     borderopacity="1"
     objecttolerance="10"
     gridtolerance="10"
     guidetolerance="10"
     inkscape:pageopacity="0"
     inkscape:pageshadow="2"
     inkscape:window-width="1920"
     inkscape:window-height="1011"
     id="namedview8"
     showgrid="true"
     inkscape:zoom="29.5"
     inkscape:cx="5.2104712"
     inkscape:cy="10.787655"
     inkscape:window-x="1920"
     inkscape:window-y="32"
     inkscape:window-maximized="1"
     inkscape:current-layer="svg6">
    <inkscape:grid
       type="xygrid"
       id="grid822" />
  </sodipodi:namedview>
  <path
     d="m 2,4 v 8 c 0,2 1,2 3,2 H 9 V 13 H 7 V 10 H 9 V 9 H 7 V 7 H 9 V 6 H 7 V 3 H 9 V 2 H 5 C 3,2 2,2 2,4 Z M 3,4 C 3,3 4,3 5,3 H 6 V 6 H 3 Z M 3,7 H 6 V 9 H 3 Z m 0,3 h 3 v 3 H 5 C 4,13 3,13 3,12 Z m 7,0 v 4 l 4,-2 z"
     id="path2"
     inkscape:connector-curvature="0"
     style="fill:#232629"
     sodipodi:nodetypes="cccccccccccccccccccccccccccccccccccccccc" />
  <path
     d="m9 2v1 1.28125 1.71875 1 2h1v-.28125l1.71875-1.71875 1-1 .28125-.28125v2.5625l-.71875.71875h1.4375.28125v-.28125-1.4375-2.5625-1.4375-1.28125h-1v2.28125l-1.71875 1.71875-1 1-.28125.28125v-.28125-1-1.28125l1.71875-1.71875 1-1h-1.4375l-1 1-.28125.28125v-.28125-1z"
     fill="#762572"
     id="path4" />
</svg>
